svgs/thin/pinball.svg

<svg xmlns="http://www.w3.org/2000/svg" viewBox="0 0 448 512"><!--! Font Awesome Pro 6.3.0 by @fontawesome - https://fontawesome.com License - https://fontawesome.com/license (Commercial License) Copyright 2023 Fonticons, Inc. --><path d="M145.4 211.6C137.5 205.3 128.1 200 118.1 196.6c-9.295-3.139-18.73-4.632-28.01-4.632c-37.92 0-73.19 24.92-85.62 64.17c-15.46 48.85 10.35 101.4 57.64 117.4l310.3 104.8c3.35 1.123 6.824 1.677 10.29 1.677c9.92 0 19.75-4.542 26.3-13.24c11.27-14.98 8.65-36.56-5.85-48.2L145.4 211.6zM396.2 457.1C392.9 461.5 388 464 382.7 464c-1.777 0-3.527-.2852-5.168-.8359l-310.3-104.8C28.22 345.2 6.914 301.5 19.74 261C29.77 229.3 58.05 208 90.1 208c7.738 0 15.44 1.275 22.89 3.791c7.902 2.67 15.66 6.936 22.4 12.3l257.8 206.9C400.9 437.3 402.3 449 396.2 457.1zM96.17 255.9c-17.64 0-31.89 14.23-31.89 31.89s14.25 31.89 31.89 31.89s31.89-14.23 31.89-31.89S113.8 255.9 96.17 255.9zM96.17 303.8c-8.828 0-16-7.188-16-16s7.172-16 16-16s16 7.188 16 16S105 303.8 96.17 303.8zM352 32c-53.02 0-96 42.98-96 96s42.98 96 96 96s96-42.98 96-96S405 32 352 32zM352 208c-44.11 0-80-35.89-80-80c0-44.11 35.89-80 80-80s80 35.89 80 80C432 172.1 396.1 208 352 208z"/></svg>

<svg xmlns="http://www.w3.org/2000/svg" viewBox="0 0 448 512"><!-- Font Awesome Pro 6.0.0-alpha2 by @fontawesome - https://fontawesome.com License - https://fontawesome.com/license (Commercial License) --><path d="M145.404 211.611C137.492 205.311 128.148 200.023 118.109 196.633C108.814 193.494 99.375 192 90.099 192C52.181 192 16.906 216.922 4.484 256.174C-10.977 305.025 14.83 357.576 62.123 373.545L372.416 478.324C375.765 479.447 379.24 480 382.703 480C392.623 480 402.453 475.459 409.002 466.756C420.269 451.777 417.652 430.197 403.152 418.557L145.404 211.611ZM396.216 457.135C392.935 461.498 388.009 464 382.703 464C380.925 464 379.175 463.715 377.535 463.164L67.242 358.385C28.222 345.211 6.914 301.525 19.738 261C29.771 229.299 58.047 208 90.099 208C97.838 208 105.539 209.275 112.99 211.791C120.892 214.461 128.654 218.727 135.386 224.088L393.136 431.033C400.947 437.303 402.328 449.014 396.216 457.135ZM96.172 255.844C78.531 255.844 64.172 270.188 64.172 287.844S78.531 319.844 96.172 319.844S128.172 305.5 128.172 287.844S113.812 255.844 96.172 255.844ZM96.172 303.844C87.343 303.844 80.172 296.656 80.172 287.844S87.343 271.844 96.172 271.844S112.172 279.031 112.172 287.844S105 303.844 96.172 303.844ZM352 32C298.98 32 256 74.98 256 128S298.98 224 352 224S448 181.02 448 128S405.019 32 352 32ZM352 208C307.888 208 272 172.111 272 128C272 83.887 307.888 48 352 48S432 83.887 432 128C432 172.111 396.111 208 352 208Z"/></svg>
